svg/editor/pencil_line.svg

<?xml version="1.0" encoding="UTF-8"?>
<svg width="24px" height="24px" viewBox="0 0 24 24" version="1.1" xmlns="http://www.w3.org/2000/svg" xmlns:xlink="http://www.w3.org/1999/xlink">
    <title>pencil_line</title>
    <g id="页面-1" stroke="none" stroke-width="1" fill="none" fill-rule="evenodd">
        <g id="Editor" transform="translate(-960.000000, 0.000000)" fill-rule="nonzero">
            <g id="pencil_line" transform="translate(960.000000, 0.000000)">
                 <path d="M24,0 L24,24 L0,24 L0,0 L24,0 Z M12.5934901,23.257841 L12.5819402,23.2595131 L12.5108777,23.2950439 L12.4918791,23.2987469 L12.4918791,23.2987469 L12.4767152,23.2950439 L12.4056548,23.2595131 C12.3958229,23.2563662 12.3870493,23.2590235 12.3821421,23.2649074 L12.3780323,23.275831 L12.360941,23.7031097 L12.3658947,23.7234994 L12.3769048,23.7357139 L12.4804777,23.8096931 L12.4953491,23.8136134 L12.4953491,23.8136134 L12.5071152,23.8096931 L12.6106902,23.7357139 L12.6232938,23.7196733 L12.6232938,23.7196733 L12.6266527,23.7031097 L12.609561,23.275831 C12.6075724,23.2657013 12.6010112,23.2592993 12.5934901,23.257841 L12.5934901,23.257841 Z M12.8583906,23.1452862 L12.8445485,23.1473072 L12.6598443,23.2396597 L12.6498822,23.2499052 L12.6498822,23.2499052 L12.6471943,23.2611114 L12.6650943,23.6906389 L12.6699349,23.7034178 L12.6699349,23.7034178 L12.678386,23.7104931 L12.8793402,23.8032389 C12.8914285,23.8068999 12.9022333,23.8029875 12.9078286,23.7952264 L12.9118235,23.7811639 L12.8776777,23.1665331 C12.8752882,23.1545897 12.8674102,23.1470016 12.8583906,23.1452862 L12.8583906,23.1452862 Z M12.1430473,23.1473072 C12.1332178,23.1423925 12.1221763,23.1452606 12.1156365,23.1525954 L12.1099173,23.1665331 L12.0757714,23.7811639 C12.0751323,23.7926639 12.0828099,23.8018602 12.0926481,23.8045676 L12.108256,23.8032389 L12.3092106,23.7104931 L12.3186497,23.7024347 L12.3186497,23.7024347 L12.3225043,23.6906389 L12.340401,23.2611114 L12.337245,23.2485176 L12.337245,23.2485176 L12.3277531,23.2396597 L12.1430473,23.1473072 Z" id="MingCute" fill-rule="nonzero"></path>
                <path d="M16.0354,3.01467 C17.16004,1.8899532 18.9556048,1.84496453 20.1340073,2.87970398 L20.278,3.01467 L20.9851,3.72177 C22.109836,4.8464868 22.1548254,6.64204546 21.1200683,7.82042076 L20.9851,7.96441 L9.77281,19.1767 C9.613778,19.33574 9.4215556,19.456444 9.21077064,19.5307224 L9.04943,19.5776 L4.59453,20.6057 C3.91174263,20.7632474 3.2959362,20.1918396 3.37445672,19.5183806 L3.39408,19.4053 L4.42213,14.9503 C4.472706,14.73118 4.57173,14.526972 4.71109704,14.352268 L4.82306,14.227 L16.0354,3.01467 Z M15.3282,6.55026 L6.33867,15.5398 L5.70227,18.2975 L8.45999,17.6611 L17.4495,8.67158 L15.3282,6.55026 Z M18.8638,4.42888 C18.5033385,4.0684 17.9360793,4.04067077 17.5438027,4.34569231 L17.4496,4.42888 L16.7424,5.13605 L18.8637,7.25737 L19.5709,6.5502 C19.9313615,6.18972 19.9590893,5.62248497 19.6540834,5.2301965 L19.5709,5.13599 L18.8638,4.42888 Z" id="形状" fill="#09244B"></path>
            </g>
        </g>
    </g>
</svg>

<svg xmlns="http://www.w3.org/2000/svg" width="24" height="24"><g fill="none" fill-rule="nonzero"><path d="M24 0v24H0V0h24ZM12.593 23.258l-.011.002-.071.035-.02.004-.014-.004-.071-.035c-.01-.004-.019-.001-.024.005l-.004.01-.017.428.005.02.01.013.104.074.015.004.012-.004.104-.074.012-.016.004-.017-.017-.427c-.002-.01-.009-.017-.017-.018Zm.265-.113-.013.002-.185.093-.01.01-.003.011.018.43.005.012.008.007.201.093c.012.004.023 0 .029-.008l.004-.014-.034-.614c-.003-.012-.01-.02-.02-.022Zm-.715.002a.023.023 0 0 0-.027.006l-.006.014-.034.614c0 .012.007.02.017.024l.015-.002.201-.093.01-.008.004-.011.017-.43-.003-.012-.01-.01-.184-.092Z"/><path fill="#09244B" d="M16.035 3.015a3 3 0 0 1 4.099-.135l.144.135.707.707a3 3 0 0 1 .135 4.098l-.135.144L9.773 19.177a1.5 1.5 0 0 1-.562.354l-.162.047-4.454 1.028a1.001 1.001 0 0 1-1.22-1.088l.02-.113 1.027-4.455a1.5 1.5 0 0 1 .29-.598l.111-.125L16.035 3.015Zm-.707 3.535-8.99 8.99-.636 2.758 2.758-.637 8.99-8.99-2.122-2.12Zm3.536-2.121a1 1 0 0 0-1.32-.083l-.094.083-.708.707 2.122 2.121.707-.707a1 1 0 0 0 .083-1.32l-.083-.094-.707-.707Z"/></g></svg>
